X:1
T:Man of Grief, LMD
T:George Coles (1792-1858) 
T:Man of Grief, LMD
T: Public Domain
C:George Coles (1792-1858)
Z:Public Domain
%%score ( 1 2 ) ( 3 4 )
L:1/8
M:6/8
K:Ab
V:1 treble 
V:2 treble 
V:3 bass 
V:4 bass 
V:1
 [CE]/[B,D]/[A,C][CE] [EA][EA]G | [EA] [EB]2 [EB][EB]c | [Ed] [Ec]2 [EA][EA]G | [EA] [EB]2 E E2 | %4
 [CE]/[B,D]/[A,C][CE] [EA][EA]G | [EA] [EB]2 [EB][EB]c | [Ed] [Ec]2 [Ed][Ee]d | %7
 [Ec][DB]A [DB] [CA]2 | [Ec]/d/ [Ee]2 [Ee][Ee]d | [Ec] [Ed]2 [Ed][Ed]c | [EB] [Ec]2 [EA][EA]G | %11
 [EA] [EB]2 E E2 | [CE]/[B,D]/[A,C][CE] [EA][EA]G | [EA] [EB]2 [EB][EB]c | [Ed] [Ec]2 [Ed][Ee]d | %15
 [Ec][DB]A [DB] [CA]2 |] %16
V:2
 x5 G | x5 c | x5 G | x3 E E2 | x5 G | x5 c | x5 d | x2 A x3 | x/ d/ x7/2 d x/ | x5 c | x5 G | %11
 x3 E E2 | x5 G | x5 c | x5 d | x2 A x3 |] %16
V:3
 A, A,2 [A,C][A,C]B, | [A,C] [G,B,]2 [G,B,][E,G,]A, | [E,B,] A,2 [A,C][A,C]B, | %3
 [A,C] [G,B,]2 [F,A,] [E,G,]2 | [A,,A,] [A,,A,]2 [A,,C][A,,C]B, | [A,,C] [E,G,]2 [E,G,][E,G,]A, | %6
 [E,B,] A,2 A,[A,C]B, | A, [E,G,]2 [E,G,] [A,,A,]2 | A,/B,/ [A,C]2 [A,C][A,C]B, | %9
 A, [E,B,]2 [E,B,][E,B,]A, | [E,G,] A,2 [A,C][A,C]B, | [A,C] [G,B,]2 [F,A,] [E,G,]2 | %12
 [A,,A,] [A,,A,]2 [A,,C][A,,C]B, | [C,A,] [E,G,]2 [E,G,][E,G,]A, | [E,B,] A,2 A,[A,C]B, | %15
 A, [E,G,]2 [E,G,] [A,,A,]2 |] %16
V:4
 A, A,2 B, x2 | x6 | x A,2 x3 | x6 | x5 B, | x5 A, | x5 B, | A, x5 | x5 B, | A, x3 A, x | %10
 x A,2 B, x2 | x6 | x5 B, | x5 A, | x A,2 A,B, x | A, x5 |] %16

